src/assets/icon/icon-pause.svg

<svg width="20" height="23" viewBox="0 0 20 23" fill="none" xmlns="http://www.w3.org/2000/svg">
<path d="M16.0358 22.8086C15.1715 22.8086 14.4319 22.5011 13.817 21.8862C13.202 21.2712 12.894 20.5311 12.893 19.6657V3.95145C12.893 3.08717 13.201 2.34755 13.817 1.7326C14.433 1.11764 15.1726 0.809644 16.0358 0.808596C16.8991 0.807549 17.6392 1.11555 18.2562 1.7326C18.8733 2.34964 19.1808 3.08926 19.1787 3.95145V19.6657C19.1787 20.53 18.8712 21.2702 18.2562 21.8862C17.6413 22.5022 16.9011 22.8096 16.0358 22.8086ZM3.46439 22.8086C2.6001 22.8086 1.86048 22.5011 1.24553 21.8862C0.63058 21.2712 0.322581 20.5311 0.321533 19.6657V3.95145C0.321533 3.08717 0.629533 2.34755 1.24553 1.7326C1.86153 1.11764 2.60115 0.809644 3.46439 0.808596C4.32763 0.807549 5.06777 1.11555 5.68482 1.7326C6.30187 2.34964 6.60934 3.08926 6.60725 3.95145V19.6657C6.60725 20.53 6.29977 21.2702 5.68482 21.8862C5.06987 22.5022 4.32972 22.8096 3.46439 22.8086Z" fill="#5654C9"/>
</svg>

<svg width="20" height="23" fill="none" xmlns="http://www.w3.org/2000/svg"><path d="M16.036 22.809a3.025 3.025 0 0 1-2.219-.923 3.032 3.032 0 0 1-.924-2.22V3.95c0-.864.308-1.603.924-2.218a3.034 3.034 0 0 1 2.219-.924 3.023 3.023 0 0 1 2.22.924c.617.617.925 1.356.923 2.218v15.715a3.03 3.03 0 0 1-.923 2.22 3.019 3.019 0 0 1-2.22.923Zm-12.572 0a3.025 3.025 0 0 1-2.218-.923 3.033 3.033 0 0 1-.924-2.22V3.95c0-.864.308-1.603.924-2.218A3.034 3.034 0 0 1 3.464.809c.864-.001 1.604.307 2.22.924.618.617.925 1.356.923 2.218v15.715a3.03 3.03 0 0 1-.922 2.22 3.019 3.019 0 0 1-2.22.923Z" fill="#5654C9"/></svg>
